icons/document-arrow-right-outline.svg

<svg xmlns="http://www.w3.org/2000/svg" width="24" height="24" viewBox="0 0 24 24">
  <path d="M12,1 L12,8 C12,8.55228475 12.4477153,9 13,9 L20,9 L20,21 C20,22.1045695 19.1045695,23 18,23 L6,23 C4.8954305,23 4,22.1045695 4,21 L4,3 C4,1.8954305 4.8954305,1 6,1 L12,1 Z M10,3 L6,3 L6,21 L18,21 L18,11 L13,11 C11.4023191,11 10.0963391,9.75108004 10.0050927,8.17627279 L10,8 L10,3 Z M15.767,15.359 L15.7803112,15.374551 L15.7837744,15.3788907 L15.779,15.374 L15.8036654,15.4046934 L15.8036654,15.4046934 C15.8215099,15.4288693 15.8382813,15.453725 15.8539326,15.4793398 L15.8753288,15.5159379 L15.8753288,15.5159379 C15.8862061,15.5357061 15.8966234,15.5561086 15.9063462,15.5769009 L15.9287745,15.628664 L15.9287745,15.628664 C15.9366843,15.6484208 15.9438775,15.6682023 15.9504533,15.6882636 C15.9552713,15.7031487 15.9599023,15.7185367 15.9641549,15.734007 C15.9701664,15.7555635 15.9753602,15.7772539 15.9798348,15.7992059 C15.9832978,15.8166247 15.9863719,15.834051 15.9889822,15.8515331 L15.996002,15.909968 L15.996002,15.909968 C15.99693,15.9208131 15.9976744,15.9308872 15.9982669,15.9409686 L15.9998198,15.980824 C15.9999398,15.9872016 16,15.9935938 16,16 L15.999,16.019 L15.998,16.059 L15.997,16.075 L15.9889807,16.1489612 L15.9889807,16.1489612 C15.9863719,16.165949 15.9832978,16.1833753 15.9797599,16.2007258 C15.9753602,16.2227461 15.9701664,16.2444365 15.964279,16.2658396 C15.9599023,16.2814633 15.9552713,16.2968513 15.9502619,16.3121425 C15.9438775,16.3317977 15.9366843,16.3515792 15.928896,16.3710585 L15.9063266,16.4232215 L15.9063266,16.4232215 C15.8966234,16.4438914 15.8862061,16.4642939 15.8751242,16.484277 C15.8685012,16.4963944 15.8613931,16.5086131 15.8540045,16.5207088 C15.8382813,16.546275 15.8215099,16.5711307 15.8036865,16.5951593 C15.7992821,16.6012086 15.7948255,16.6070733 15.7902954,16.6128994 C15.7849289,16.6196628 15.7826279,16.6225624 15.7803112,16.625449 L15.7071068,16.7071068 L12.7071068,19.7071068 C12.3165825,20.0976311 11.6834175,20.0976311 11.2928932,19.7071068 C10.9324093,19.3466228 10.9046797,18.7793918 11.2097046,18.3871006 L11.2928932,18.2928932 L12.585,17 L9,17 C8.44771525,17 8,16.5522847 8,16 C8,15.4871642 8.38604019,15.0644928 8.88337887,15.0067277 L9,15 L12.585,15 L11.2928932,13.7071068 C10.9023689,13.3165825 10.9023689,12.6834175 11.2928932,12.2928932 C11.6533772,11.9324093 12.2206082,11.9046797 12.6128994,12.2097046 L12.7071068,12.2928932 L15.7071068,15.2928932 L15.775,15.37 L15.767,15.359 Z M14,1 L20,7 L15,7 C14.4871642,7 14.0644928,6.61395981 14.0067277,6.11662113 L14,6 L14,1 Z"/>
</svg>

<svg xmlns="http://www.w3.org/2000/svg" viewBox="0 0 24 24">
  <path d="M12 1v7a1 1 0 0 0 1 1h7v12a2 2 0 0 1-2 2H6a2 2 0 0 1-2-2V3c0-1.1.9-2 2-2h6zm-2 2H6v18h12V11h-5a3 3 0 0 1-3-2.82V3zm5.77 12.36.01.01.02.03.05.08.03.04.03.06.02.05a.99.99 0 0 1 .06.22v.09l.01.04v.1l-.01.07a1.08 1.08 0 0 1-.06.22l-.02.05a1.02 1.02 0 0 1-.13.2l-.07.09-3 3a1 1 0 0 1-1.5-1.32l.08-.1L12.6 17H9a1 1 0 0 1-.12-2h3.71l-1.3-1.3a1 1 0 0 1 1.32-1.49l.1.08 3 3 .06.08v-.01zM14 1l6 6h-5a1 1 0 0 1-1-.88V1z"/>
</svg>
